icons/relative-to-scene-elevation-16.svg

<svg xmlns="http://www.w3.org/2000/svg" viewBox="0 0 16 16"><path fill="none" d="M0 0h16v16H0z"/><path d="M7 7H6V6h1zM6 9h1V8H6zM5 4V3a1 1 0 0 1 1-1h1a1 1 0 0 1 1 1v1a1 1 0 0 1-1 1H6a1 1 0 0 1-1-1zm1 0h1V3H6zm10 11v1H1V0h1v1h1v1H2v1h1v1H2v1h1v1H2v1h1v1H2v1h1v1H2v1h1v1H2v1h1v1H2v1h3v-5h4V6h1V4h3v2h1v9zm-5-9h1V5h-1zm-2 9v-4H6v4zm4 0V7h-3v8z"/></svg>

<svg id="icons" xmlns="http://www.w3.org/2000/svg" viewBox="0 0 16 16"><defs><style>.cls-1{fill:none;}</style></defs><rect class="cls-1" width="16" height="16"/><path d="M7,7H6V6H7ZM6,9H7V8H6ZM5,4V3A.99947.99947,0,0,1,6,2H7A.99951.99951,0,0,1,8,3V4A.99951.99951,0,0,1,7,5H6A.99947.99947,0,0,1,5,4ZM6,4H7V3H6ZM16,15v1H1V0H2V1H3V2H2V3H3V4H2V5H3V6H2V7H3V8H2V9H3v1H2v1H3v1H2v1H3v1H2v1H5V10H9V6h1V4h3V6h1v9ZM11,6h1V5H11ZM9,15V11H6v4Zm4,0V7H10v8Z"/></svg>
